ОкеанВКонцеДороги/svg/ch1/star1.svg

<svg width="58" height="59" viewBox="0 0 58 59" fill="none" xmlns="http://www.w3.org/2000/svg">
<path d="M39.2731 0.000368575L38.6561 21.1392L57.1811 31.3399L36.8861 37.2853L32.9092 58.0558L20.9834 40.5914L0.000467059 43.2276L12.9248 26.4886L3.93359 7.34735L23.8471 14.4665L39.2731 0.000368575Z" fill="#DAE6FF"/>
</svg>

<svg xmlns="http://www.w3.org/2000/svg" width="58" height="59" fill="none" viewBox="0 0 58 59"><path fill="#dae6ff" d="m39.273 0-.617 21.14 18.525 10.2-20.295 5.945-3.977 20.77-11.926-17.464L0 43.228l12.925-16.74-8.991-19.14 19.913 7.119z"/></svg>
